X:56
T:Easter Holy Days. THO2.056
O:London
M:C
L:1/8
Q:1/2=100
B:Thompson's Compleat Coll. of 200 Favourite Country Dances, vol.2,1765
Z:Transcribed and edited by Fynn Titford-Mock, 2007
Z:abc's:AK/Fiddler's Companion/VMP 2009
K:D
ag|f2d4 ed|c2A4 dc|B2G4 AG|F2D4 ag|f2d4 ed|c2A4 Bc|B2g2e2c2|A2 d4:|
|:fg|f2 a4gf|e2g4fe|d2 f4ed|c2A4Bc|d2cdB2cd|e2dec2gf|edcB AGFE|D2d4:|

